X:2037
T:Black Nag, The
R:Jig
C:Trad. Playford 1657
O:England, Ickwell Maypole
Z:Paul Hardy's Session Tunebook 2015 (see www.paulhardy.net). Creative Commons cc by-nc-sa licenced.
M:6/8
L:1/8
Q:3/8=80
K:Am
E|"Am"A>BA "Em"B>AB|"Am"c>Bc "Dm"Bcd|"Am"e>dc "Em"B>AB|"Am"A3 A2:|
|:A|"Em"B>GE BGE|BGE Bcd|"Am"e>cA ecA|ecA ecA|
"Em"B>GE BGE|BGE B>cd|"Am"e>dc "Em"B>AB|"Am"A3 A2:|

